src/images/rocket_cc.svg

<?xml version="1.0" encoding="UTF-8" standalone="no"?>
<svg
   xmlns:dc="http://purl.org/dc/elements/1.1/"
   xmlns:cc="http://creativecommons.org/ns#"
   xmlns:rdf="http://www.w3.org/1999/02/22-rdf-syntax-ns#"
   xmlns:svg="http://www.w3.org/2000/svg"
   xmlns="http://www.w3.org/2000/svg"
   xmlns:sodipodi="http://sodipodi.sourceforge.net/DTD/sodipodi-0.dtd"
   xmlns:inkscape="http://www.inkscape.org/namespaces/inkscape"
   version="1.1"
   x="0px"
   y="0px"
   viewBox="0 0 90 85"
   id="svg4499"
   sodipodi:docname="rocket_cc.svg"
   width="90"
   height="85"
   inkscape:version="0.92.1 r15371">
  <metadata
     id="metadata4505">
    <rdf:RDF>
      <cc:Work
         rdf:about="">
        <dc:format>image/svg+xml</dc:format>
        <dc:type
           rdf:resource="http://purl.org/dc/dcmitype/StillImage" />
        <dc:title></dc:title>
      </cc:Work>
    </rdf:RDF>
  </metadata>
  <defs
     id="defs4503" />
  <sodipodi:namedview
     pagecolor="#ffffff"
     bordercolor="#666666"
     borderopacity="1"
     objecttolerance="10"
     gridtolerance="10"
     guidetolerance="10"
     inkscape:pageopacity="0"
     inkscape:pageshadow="2"
     inkscape:window-width="1278"
     inkscape:window-height="1368"
     id="namedview4501"
     showgrid="false"
     inkscape:zoom="5.3400704"
     inkscape:cx="30.626556"
     inkscape:cy="75.3105"
     inkscape:window-x="1359"
     inkscape:window-y="0"
     inkscape:window-maximized="0"
     inkscape:current-layer="svg4499" />
  <g
     transform="translate(-11.255297,-956.21282)"
     id="g4497">
    <path
       style="color:#000000;font-style:normal;font-variant:normal;font-weight:normal;font-stretch:normal;font-size:medium;line-height:normal;font-family:Sans;-inkscape-font-specification:Sans;text-indent:0;text-align:start;text-decoration:none;text-decoration-line:none;letter-spacing:normal;word-spacing:normal;text-transform:none;writing-mode:lr-tb;direction:ltr;baseline-shift:baseline;text-anchor:start;display:inline;overflow:visible;visibility:visible;opacity:1;fill:#000000;fill-opacity:1;stroke:none;stroke-width:2;marker:none;enable-background:accumulate"
       d="m 87,12 c -8.742481,0 -20.451448,3.1406 -31.03125,9.53125 -4.298045,2.596202 -8.400476,5.744921 -12.03125,9.4375 -2.072089,-0.239149 -3.9946,-0.377935 -5.78125,-0.4375 -5.528629,-0.18431 -9.795016,0.51392 -13.4375,2.1875 -4.856645,2.23144 -8.495218,6.13792 -12.53125,11.6875 a 1.0001,1.0001 0 0 0 0.53125,1.53125 l 19.6875,5.90625 15.71875,15.71875 5.90625,19.71875 a 1.0001,1.0001 0 0 0 1.5625,0.5 c 5.549532,-4.0359 9.456069,-7.6433 11.6875,-12.5 C 69.501634,70.448693 69.990777,64.52189 69,56 80.939507,44.405416 88,27.47506 88,13 a 1.0001,1.0001 0 0 0 -1,-1 z m -1.09375,2.09375 C 85.402429,34.03609 70.999811,58.851 49.25,65.8125 L 34.15625,50.71875 C 37.980712,38.48648 46.89211,29.3556 57,23.25 66.848041,17.30136 77.740391,14.33154 85.90625,14.09375 Z M 66,26 c -4.406434,0 -8,3.59357 -8,8 0,4.40644 3.593566,8 8,8 4.406434,0 8,-3.59356 8,-8 0,-4.40643 -3.593566,-8 -8,-8 z m 0,2 c 3.325551,0 6,2.67445 6,6 0,3.32556 -2.674449,6 -6,6 -3.325554,0 -6,-2.67444 -6,-6 0,-3.32555 2.674446,-6 6,-6 z m -30.46875,4.5 c 1.985207,-0.04501 4.207233,0.07501 6.65625,0.3125 -4.281788,4.787459 -7.748542,10.441368 -9.84375,16.9375 l -17.625,-5.28125 c 3.569686,-4.74145 6.770731,-8.08047 10.8125,-9.9375 2.745847,-1.261606 5.937462,-1.939143 10,-2.03125 z m 31.625,25.21875 c 0.736657,7.495111 0.1959,12.619545 -1.6875,16.71875 -1.8524,4.0317 -5.215661,7.2537 -9.9375,10.8125 L 50.25,67.65625 c 6.305804,-2.081941 11.974357,-5.557734 16.90625,-9.9375 z m -40.1875,2.25 a 1.0001,1.0001 0 0 0 -0.6875,0.3125 l -6,6 a 1.0054956,1.0054956 0 0 0 1.4375,1.40625 l 6,-6 a 1.0001,1.0001 0 0 0 -0.75,-1.71875 z m 7,5 a 1.0001,1.0001 0 0 0 -0.6875,0.3125 l -12,12 a 1.0054956,1.0054956 0 1 0 1.4375,1.40625 l 12,-12 a 1.0001,1.0001 0 0 0 -0.75,-1.71875 z m 5,7 a 1.0001,1.0001 0 0 0 -0.6875,0.3125 l -6,6 a 1.0054956,1.0054956 0 1 0 1.4375,1.40625 l 6,-6 a 1.0001,1.0001 0 0 0 -0.75,-1.71875 z"
       transform="translate(0,952.36218)"
       id="path4495"
       inkscape:connector-curvature="0" />
  </g>
  <ellipse
     style="opacity:1;fill:none;fill-opacity:1;stroke:#ffffff;stroke-width:0.75590551;stroke-linecap:round;stroke-miterlimit:4;stroke-dasharray:none;stroke-opacity:1"
     id="path4519"
     cx="85.24881"
     cy="7.8340364"
     rx="1.6724613"
     ry="1.6232712" />
  <ellipse
     style="opacity:1;fill:none;fill-opacity:1;stroke:#ffffff;stroke-width:0.75590551;stroke-linecap:round;stroke-miterlimit:4;stroke-dasharray:none;stroke-opacity:1"
     id="path4519-4"
     cx="30.711205"
     cy="15.150735"
     rx="1.6724613"
     ry="1.6232712" />
  <path
     style="fill:none;stroke:#ffffff;stroke-width:0.75590551;stroke-linecap:round;stroke-linejoin:miter;stroke-miterlimit:4;stroke-dasharray:none;stroke-opacity:1"
     d="m 46.297178,1.5577003 3.935203,3.640063"
     id="path4490"
     inkscape:connector-curvature="0" />
  <path
     style="fill:none;stroke:#ffffff;stroke-width:0.75590551;stroke-linecap:round;stroke-linejoin:miter;stroke-miterlimit:4;stroke-dasharray:none;stroke-opacity:1"
     d="m 50.330761,1.5085093 -3.935203,3.640063"
     id="path4490-9"
     inkscape:connector-curvature="0" />
  <path
     style="fill:none;stroke:#ffffff;stroke-width:0.75590551;stroke-linecap:round;stroke-linejoin:miter;stroke-miterlimit:4;stroke-dasharray:none;stroke-opacity:1"
     d="m 77.382911,22.905734 3.935203,3.640063"
     id="path4490-1"
     inkscape:connector-curvature="0" />
  <path
     style="fill:none;stroke:#ffffff;stroke-width:0.75590551;stroke-linecap:round;stroke-linejoin:miter;stroke-miterlimit:4;stroke-dasharray:none;stroke-opacity:1"
     d="m 81.416494,22.856543 -3.935203,3.640063"
     id="path4490-9-5"
     inkscape:connector-curvature="0" />
</svg>

<svg xmlns:dc="http://purl.org/dc/elements/1.1/" xmlns:cc="http://creativecommons.org/ns#" xmlns:rdf="http://www.w3.org/1999/02/22-rdf-syntax-ns#" xmlns:svg="http://www.w3.org/2000/svg" xmlns="http://www.w3.org/2000/svg" xmlns:sodipodi="http://sodipodi.sourceforge.net/DTD/sodipodi-0.dtd" xmlns:inkscape="http://www.inkscape.org/namespaces/inkscape" version="1.1" x="0px" y="0px" viewBox="0 0 100 125"><g transform="translate(0,-952.36218)"><path style="font-size:medium;font-style:normal;font-variant:normal;font-weight:normal;font-stretch:normal;text-indent:0;text-align:start;text-decoration:none;line-height:normal;letter-spacing:normal;word-spacing:normal;text-transform:none;direction:ltr;block-progression:tb;writing-mode:lr-tb;text-anchor:start;baseline-shift:baseline;opacity:1;color:#000000;fill:#000000;fill-opacity:1;stroke:none;stroke-width:2;marker:none;visibility:visible;display:inline;overflow:visible;enable-background:accumulate;font-family:Sans;-inkscape-font-specification:Sans" d="M 87 12 C 78.257519 12 66.548552 15.1406 55.96875 21.53125 C 51.670705 24.127452 47.568274 27.276171 43.9375 30.96875 C 41.865411 30.729601 39.9429 30.590815 38.15625 30.53125 C 32.627621 30.34694 28.361234 31.04517 24.71875 32.71875 C 19.862105 34.95019 16.223532 38.85667 12.1875 44.40625 A 1.0001 1.0001 0 0 0 12.71875 45.9375 L 32.40625 51.84375 L 48.125 67.5625 L 54.03125 87.28125 A 1.0001 1.0001 0 0 0 55.59375 87.78125 C 61.143282 83.74535 65.049819 80.13795 67.28125 75.28125 C 69.501634 70.448693 69.990777 64.52189 69 56 C 80.939507 44.405416 88 27.47506 88 13 A 1.0001 1.0001 0 0 0 87 12 z M 85.90625 14.09375 C 85.402429 34.03609 70.999811 58.851 49.25 65.8125 L 34.15625 50.71875 C 37.980712 38.48648 46.89211 29.3556 57 23.25 C 66.848041 17.30136 77.740391 14.33154 85.90625 14.09375 z M 66 26 C 61.593566 26 58 29.59357 58 34 C 58 38.40644 61.593566 42 66 42 C 70.406434 42 74 38.40644 74 34 C 74 29.59357 70.406434 26 66 26 z M 66 28 C 69.325551 28 72 30.67445 72 34 C 72 37.32556 69.325551 40 66 40 C 62.674446 40 60 37.32556 60 34 C 60 30.67445 62.674446 28 66 28 z M 35.53125 32.5 C 37.516457 32.454991 39.738483 32.575006 42.1875 32.8125 C 37.905712 37.599959 34.438958 43.253868 32.34375 49.75 L 14.71875 44.46875 C 18.288436 39.7273 21.489481 36.38828 25.53125 34.53125 C 28.277097 33.269644 31.468712 32.592107 35.53125 32.5 z M 67.15625 57.71875 C 67.892907 65.213861 67.35215 70.338295 65.46875 74.4375 C 63.61635 78.4692 60.253089 81.6912 55.53125 85.25 L 50.25 67.65625 C 56.555804 65.574309 62.224357 62.098516 67.15625 57.71875 z M 26.96875 59.96875 A 1.0001 1.0001 0 0 0 26.28125 60.28125 L 20.28125 66.28125 A 1.0054956 1.0054956 0 0 0 21.71875 67.6875 L 27.71875 61.6875 A 1.0001 1.0001 0 0 0 26.96875 59.96875 z M 33.96875 64.96875 A 1.0001 1.0001 0 0 0 33.28125 65.28125 L 21.28125 77.28125 A 1.0054956 1.0054956 0 1 0 22.71875 78.6875 L 34.71875 66.6875 A 1.0001 1.0001 0 0 0 33.96875 64.96875 z M 38.96875 71.96875 A 1.0001 1.0001 0 0 0 38.28125 72.28125 L 32.28125 78.28125 A 1.0054956 1.0054956 0 1 0 33.71875 79.6875 L 39.71875 73.6875 A 1.0001 1.0001 0 0 0 38.96875 71.96875 z " transform="translate(0,952.36218)"/></g><text x="0" y="115" fill="#000000" font-size="5px" font-weight="bold" font-family="'Helvetica Neue', Helvetica, Arial-Unicode, Arial, Sans-serif">Created by pictohaven</text><text x="0" y="120" fill="#000000" font-size="5px" font-weight="bold" font-family="'Helvetica Neue', Helvetica, Arial-Unicode, Arial, Sans-serif">from the Noun Project</text></svg>
